X: 28023
T: Moving In Old Decency
R: reel
M: 4/4
K: Eminor
A2|:"^em"BeeA Beed|Beed"G"BAAG|FAAB BAFA|
Beed"D"BAAF|"G"G2GB GABA|"D"AGFG"^em"E2:|
FA|:"^em"Beef edBA|(3Bcd ef"A"gefe|
"D"d2ce dcBA|"^em" (3Bcd ef"A"gefe|"^em"Beef edBA|
(3Bcd ef gedB|"G"G2GB GABA|"D"AGFG"^em"E2:|

